svg/u1f420.svg

<svg viewBox="0 0 128 128" xmlns="http://www.w3.org/2000/svg">
  <path d="M96.89,56.06l1.31-12.67l-3.85-17.46c0,0,2.82-3.1,4.41-3.85s3.38-1.17,3.38-1.17s4.13-0.7,6.85-0.8 c2.72-0.09,5.82,0.38,5.73-0.94c-0.09-1.31-12.29-3.38-18.96-3.57c-6.66-0.19-28.91,0.84-44.96,8.63S30.53,38.98,30.53,38.98 l-5.35,10.61l-5.35,2.16c0,0-4.88,8.17-6.48,12.86s-3.28,8.35-4.13,9.29c-0.84,0.94-5.07,4.22-5.07,4.88s4.32,3.1,4.32,3.75 c0,0.66-3.47,1.5-3.47,2.25s6.1,7.6,15.3,14.55s20.55,12.01,28.91,14.08c8.35,2.06,19.52,3,19.99,2.63c0.47-0.38-8.73-7.6-8.73-7.6 s8.82,3.75,14.36,4.41c5.54,0.66,6.41,0.7,11.83,0.49c5.42-0.21,14.17-7.91,14.17-7.91l4.69-15.49l-2.11-10.11 c0,0-2.84-4.55-2.96-5.49c-0.12-0.94,1.17-0.22,2.32,0.07c1.41,0.35,4.69,2.63,6.76,4.79c1.27,1.33,5.18,5.5,6.8,7.25 c0.77,0.84,2.15,0.52,2.49-0.56l1.53-8.8l-0.84-27.78l-3.18-10.93c-0.36-0.94-1.63-1.11-2.22-0.28c-2.25,3.17-7.15,10.68-8.59,12.53 c-1.97,2.53-5.34,6.36-7.25,7.04c-1.13,0.4-1.55,0.21-1.55,0.21L96.89,56.06z" fill="#FFB800"/>
  <path d="M85.25,113.13c0,0,14.44-2.85,16.96-16.75c1.97-10.84-2.11-22.1-2.11-22.1s0.15-1.54,1.83,0.56 c3.1,3.87,8.87,16.68,1.48,29.7c-6.25,11.01-17.74,9.01-18.44,9.01S85.25,113.13,85.25,113.13z" fill="#B5D219"/>
  <path d="M102.14,20.91c0,0-8.8-0.63-9.15,7.46c-0.28,6.41,3.24,10.91,3.1,17.81 c-0.14,6.9-0.9,11.89,0.63,11.68c1.06-0.14,3.38-3.45,3.45-10.56s-4.71-14.46-4.58-19.01C95.74,23.59,102.14,20.91,102.14,20.91z" fill="#B5D219"/>
  <path d="M114.96,37.53c-1.47,0.58,0.07,5.07,0.56,6.48s1.94,9.08,2.04,20.34c0.07,8.09-0.7,15.98-1.06,17.74 s-1.13,4.43,0.77,4.86s3.79-3.52,4.86-10.21c0.84-5.28,0.77-10.07,0.84-15.06c0.15-10.5-2.39-17.25-3.31-19.5 C118.76,39.92,116.93,36.75,114.96,37.53z" fill="#2C2F30"/>
  <path d="M77.74,39.26c-1.69,0.19,1.12,6.42,1.88,10.98c1.22,7.32,1.22,12.01,1.06,18.04 c-0.15,5.59-1.53,15.27-5.91,23.51c-0.96,1.81-1.55,3.38-0.21,3.52c2.67,0.28,7.7-6.22,10.28-13.23c2.9-7.89,3.45-14.92,2.39-23.3 c-0.85-6.74-2.42-11.19-3.47-13.51C82.8,43.17,80.65,38.94,77.74,39.26z" fill="#2C2F30"/>
  <path d="M54.35,26.48c-2.6,0.73,1.06,6.12,2.65,10.25c2.49,6.45,7.65,18.11,7.79,30.43S61.13,88.54,60,91.35 c-1.17,2.93-2.98,7.13-3.54,8.33c-0.56,1.2-0.54,2.58,0.07,2.75c1.41,0.38,3.78-1.24,6.19-3.66c1.6-1.6,4.6-4.79,8.05-14.71 c1.89-5.44,3.68-14.95,2.37-25.46c-1.56-12.48-7.1-20.88-9.08-23.89C61.13,30.25,57.38,25.63,54.35,26.48z" fill="#2C2F30"/>
  <path d="M38.02,38.44c-2.11,0.58,3.87,6.78,6.69,13.96s3.68,13.16,4.04,19.43 c0.35,6.26-0.52,12.95-1.13,17.08c-0.49,3.35-2.28,9.43-1.92,10.56c0.35,1.13,2.44,1.17,3.99-1.36c1.55-2.53,4.88-8.07,6.92-20.04 c0.95-5.56,0.49-18.6-5.56-27.94C45.83,42.08,40.48,37.76,38.02,38.44z" fill="#2C2F30"/>
  <path d="M19.84,51.75c0,0,3.94-5.63,5.63-7.7c1.69-2.06,6.29-6.76,6.29-6.76s0.19,13.42,0.66,16.99 c0.47,3.57,2.06,11.45,3.85,15.58c0.93,2.15,2.71,7.4,2.44,9.57c-0.47,3.85-4.8,9.63-6.66,9.85c-3.94,0.47-7.79-7.02-9.57-11.92 C19.93,70.42,17.96,57.75,19.84,51.75z" fill="#2C2F30"/>
  <path d="M34.15,75.54c0.1,2.69-2.09,4.41-4.41,4.41s-4.08-2.22-4.08-4.55s1.97-4.08,4.29-4.08 S34.05,73,34.15,75.54z" fill="#FFB805"/>
  <path d="M30.07,75.44c-0.61,0.7-2.32,0.69-2.93-0.03c-0.61-0.72-0.53-2.18,0.35-2.92 c0.88-0.75,2.11-0.89,2.84,0.22C30.84,73.5,30.82,74.57,30.07,75.44z" fill="#FFEDC7"/>
</svg>

<svg viewBox="0 0 128 128" xmlns="http://www.w3.org/2000/svg">
  <defs/>
  <path d="M96.89,56.06 L98.2,43.39 L94.35,25.93 C94.35,25.93 97.17,22.83 98.76,22.08 C100.35,21.33 102.14,20.91 102.14,20.91 C102.14,20.91 106.27,20.21 108.99,20.11 C111.71,20.02 114.81,20.49 114.72,19.17 C114.63,17.86 102.43,15.79 95.76,15.6 C89.1,15.41 66.85,16.44 50.8,24.23 C34.75,32.02 30.53,38.98 30.53,38.98 L25.18,49.59 L19.83,51.75 C19.83,51.75 14.95,59.92 13.35,64.61 C11.75,69.3 10.07,72.96 9.22,73.9 C8.38,74.84 4.15,78.12 4.15,78.78 C4.15,79.44 8.47,81.88 8.47,82.53 C8.47,83.19 5,84.03 5,84.78 C5,85.53 11.1,92.38 20.3,99.33 C29.5,106.28 40.85,111.34 49.21,113.41 C57.56,115.47 68.73,116.41 69.2,116.04 C69.67,115.66 60.47,108.44 60.47,108.44 C60.47,108.44 69.29,112.19 74.83,112.85 C80.37,113.51 81.24,113.55 86.66,113.34 C92.08,113.13 100.83,105.43 100.83,105.43 L105.52,89.94 L103.41,79.83 C103.41,79.83 100.57,75.28 100.45,74.34 C100.33,73.4 101.62,74.12 102.77,74.41 C104.18,74.76 107.46,77.04 109.53,79.2 C110.8,80.53 114.71,84.7 116.33,86.45 C117.1,87.29 118.48,86.97 118.82,85.89 L120.35,77.09 L119.51,49.31 L116.33,38.38 C115.97,37.44 114.7,37.27 114.11,38.1 C111.86,41.27 106.96,48.78 105.52,50.63 C103.55,53.16 100.18,56.99 98.27,57.67 C97.14,58.07 96.72,57.88 96.72,57.88 L96.89,56.06 Z" fill="#FFB800"/>
  <path d="M85.25,113.13 C85.25,113.13 99.69,110.28 102.21,96.38 C104.18,85.54 100.1,74.28 100.1,74.28 C100.1,74.28 100.25,72.74 101.93,74.84 C105.03,78.71 110.8,91.52 103.41,104.54 C97.16,115.55 85.67,113.55 84.97,113.55 C84.27,113.55 85.25,113.13 85.25,113.13 Z" fill="#B5D219"/>
  <path d="M102.14,20.91 C102.14,20.91 93.34,20.28 92.99,28.37 C92.71,34.78 96.23,39.28 96.09,46.18 C95.95,53.08 95.19,58.07 96.72,57.86 C97.78,57.72 100.1,54.41 100.17,47.3 C100.24,40.19 95.46,32.84 95.59,28.29 C95.74,23.59 102.14,20.91 102.14,20.91 Z" fill="#B5D219"/>
  <path d="M114.96,37.53 C113.49,38.11 115.03,42.6 115.52,44.01 C116.01,45.42 117.46,53.09 117.56,64.35 C117.63,72.44 116.86,80.33 116.5,82.09 C116.14,83.85 115.37,86.52 117.27,86.95 C119.17,87.38 121.06,83.43 122.13,76.74 C122.97,71.46 122.9,66.67 122.97,61.68 C123.12,51.18 120.58,44.43 119.66,42.18 C118.76,39.92 116.93,36.75 114.96,37.53 Z" fill="#2C2F30"/>
  <path d="M77.74,39.26 C76.05,39.45 78.86,45.68 79.62,50.24 C80.84,57.56 80.84,62.25 80.68,68.28 C80.53,73.87 79.15,83.55 74.77,91.79 C73.81,93.6 73.22,95.17 74.56,95.31 C77.23,95.59 82.26,89.09 84.84,82.08 C87.74,74.19 88.29,67.16 87.23,58.78 C86.38,52.04 84.81,47.59 83.76,45.27 C82.8,43.17 80.65,38.94 77.74,39.26 Z" fill="#2C2F30"/>
  <path d="M54.35,26.48 C51.75,27.21 55.41,32.6 57,36.73 C59.49,43.18 64.65,54.84 64.79,67.16 C64.93,79.48 61.13,88.54 60,91.35 C58.83,94.28 57.02,98.48 56.46,99.68 C55.9,100.88 55.92,102.26 56.53,102.43 C57.94,102.81 60.31,101.19 62.72,98.77 C64.32,97.17 67.32,93.98 70.77,84.06 C72.66,78.62 74.45,69.11 73.14,58.6 C71.58,46.12 66.04,37.72 64.06,34.71 C61.13,30.25 57.38,25.63 54.35,26.48 Z" fill="#2C2F30"/>
  <path d="M38.02,38.44 C35.91,39.02 41.89,45.22 44.71,52.4 C47.53,59.58 48.39,65.56 48.75,71.83 C49.1,78.09 48.23,84.78 47.62,88.91 C47.13,92.26 45.34,98.34 45.7,99.47 C46.05,100.6 48.14,100.64 49.69,98.11 C51.24,95.58 54.57,90.04 56.61,78.07 C57.56,72.51 57.1,59.47 51.05,50.13 C45.83,42.08 40.48,37.76 38.02,38.44 Z" fill="#2C2F30"/>
  <path d="M19.84,51.75 C19.84,51.75 23.78,46.12 25.47,44.05 C27.16,41.99 31.76,37.29 31.76,37.29 C31.76,37.29 31.95,50.71 32.42,54.28 C32.89,57.85 34.48,65.73 36.27,69.86 C37.2,72.01 38.98,77.26 38.71,79.43 C38.24,83.28 33.91,89.06 32.05,89.28 C28.11,89.75 24.26,82.26 22.48,77.36 C19.93,70.42 17.96,57.75 19.84,51.75 Z" fill="#2C2F30"/>
  <path d="M34.15,75.54 C34.25,78.23 32.06,79.95 29.74,79.95 C27.42,79.95 25.66,77.73 25.66,75.4 C25.66,73.07 27.63,71.32 29.95,71.32 C32.27,71.32 34.05,73 34.15,75.54 Z" fill="#FFB805"/>
  <path d="M30.07,75.44 C29.46,76.14 27.75,76.13 27.14,75.41 C26.53,74.69 26.61,73.23 27.49,72.49 C28.37,71.74 29.6,71.6 30.33,72.71 C30.84,73.5 30.82,74.57 30.07,75.44 Z" fill="#FFEDC7"/>
</svg>
